X:1
T:Vals efter Olof Vesterhult
N:org. i C-dur
M:3/8
L:1/8
O:Blekinge
R:Vals
Z:Andy Davey 2018
K:D
|: aaf | aaf | bge | d/c/d/e/f/g/ | aaf | aaf | bge | d3 :|
   cee | dff | egg | faa | cee | dff | gec | d3 :|

